_site/assets/images/logo-katz-blue.svg

<?xml version="1.0" encoding="UTF-8" standalone="no"?>
<svg width="60px" height="36px" viewBox="0 0 60 36" version="1.1" xmlns="http://www.w3.org/2000/svg" xmlns:xlink="http://www.w3.org/1999/xlink">
    <!-- Generator: Sketch 42 (36781) - http://www.bohemiancoding.com/sketch -->
    <title>blue</title>
    <desc>Created with Sketch.</desc>
    <defs></defs>
    <g id="Page-1" stroke="none" stroke-width="1" fill="none" fill-rule="evenodd">
        <g id="blue" fill-rule="nonzero" fill="#0000FF">
            <g id="13773DEC-16CD-4B11-92A4-FAC45BCFA50F">
                <g id="Symbols">
                    <g id="logo/blue">
                        <g id="logo/white">
                            <path d="M7.5,15.2414773 L23.0357143,0 L26.7857143,0 L26.7857143,5.95964459 L16.6071429,16.8100845 L27.8571429,30.3812317 L29.4642857,32.3326914 L32.1428571,35.8064516 L26.25,35.8064516 L22.5,35.8064516 L11.25,21.6927824 L7.5,25.4904364 L7.5,35.8064516 L0,35.8064516 L0,0 L7.5,0 L7.5,15.2414773 Z M27.476583,26.8130854 L38.0357143,0 L46.0714286,0 L57.8571429,29.9277805 L60,35.8064516 L51.9642857,35.8064516 L49.2857143,28.3245065 L34.8214286,28.3245065 L33.0307677,33.3262871 L27.476583,26.8130854 Z M27.3305604,35.8064516 L26.25,34.5393155 L26.25,35.8064516 L27.3305604,35.8064516 Z M36.9642857,21.9114107 L47.1428571,21.9114107 L42.0535714,9.08521907 L36.9642857,21.9114107 Z" id="Combined-Shape"></path>
                        </g>
                    </g>
                </g>
            </g>
        </g>
    </g>
</svg>

<svg xmlns="http://www.w3.org/2000/svg" width="60" height="37" viewBox="0 0 60 37">
    <path fill="#2C65B0" fill-rule="evenodd" d="M7.5 15.241L23.036 0h3.75v5.96L16.607 16.81l11.25 13.571 1.607 1.952 2.679 3.473H22.5L11.25 21.693 7.5 25.49v10.316H0V0h7.5v15.241zm19.977 11.572L38.036 0h8.035l11.786 29.928L60 35.806h-8.036l-2.678-7.481H34.82l-1.79 5.001-5.554-6.513zm9.487-4.902h10.179l-5.09-12.826-5.089 12.826z"/>
</svg>
